svg/u1f40a.svg

<svg viewBox="0 0 128 128" xmlns="http://www.w3.org/2000/svg">
  <path d="M58.5,13.64l-18.96,10.7l-11.07,10.7l-9.03,1.75c0,0,3.52,3.94,13.76,0.6 c10.14-3.31,15.86-16.91,26.92-15.7c10.63,1.16,8.62,11.51,8.62,11.51l14.54-16.55L58.5,13.64z" fill="#5A6415"/>
  <path d="M55.27,42.28c0,0-3.37,0.99-5.3,6.23c-1.5,4.07-0.52,8.02-0.09,9.57c0.42,1.55,1.49,3.66,1.56,4.5 c0.07,0.84-2.41,2.49-2.29,4.05c0.07,0.92,1.77,2.28,3.87,2.53c4.08,0.49,5-0.56,5-0.56l5.49-18.9L55.27,42.28z" fill="#5A6415"/>
  <path d="M57.27,75.19c0,0-7.07-4.08-14.32-3.66s-9.29,3.8-10.14,6.69c-0.56,1.92-1.86,5.23-2.89,6.9 c-0.95,1.55-2.96,2.87-4.22,3.15c-1.81,0.4-4.05,1.16-3.33,3.94c0.59,2.28,2.25,3.71,4.29,5.05c2.01,1.31,4.38,2.82,4.38,2.82 l25.97-17.21L57.27,75.19z" fill="#5A6415"/>
  <path d="M82.08,88.21l-5.91,7.81c0,0,2.32,4.65,8.09,5.98c5.77,1.34,8.76,1.69,9.54,3.55 c1.05,2.54-0.14,5.91-0.56,6.62c-0.42,0.7-2.62,3-1.02,4.58c1.94,1.9,7.18,0.77,9.01,0.14s4.13-1.11,4.94-3.78 c0.55-1.83,1.66-8.42,1.5-12.51c-0.18-4.75-1.06-7.92-2.53-9.26c-1.48-1.34-11.16-3.13-11.16-3.13s1.67-3.88,3.59-8.94 c0.95-2.5,1.51-5.17,1.97-5.35c0.73-0.28,1.94,1.69,2.22,2.46c0.28,0.77,0.14,8.47,1.19,9.62c0.89,0.98,3.83,1.62,6.52-0.18 c2.36-1.58,4.85-4.51,4.72-7.53c-0.18-3.91-3.77-6.76-3.91-8.31c-0.14-1.55,0.56-5.46,0-8.48c-0.56-3.03-15.03-12-15.03-12 L82.08,88.21z" fill="#5A6415"/>
  <polyline fill="#F26A35" points="56.04,101.72 22.67,110.73 18.17,111.79 18.31,116.36 26.83,121.99 46.54,116.15 59.14,109.4 55.62,101.23 "/>
  <path d="M19.51,117.63c0,0,0.28-4.15,2.11-3.8c1.49,0.29,2.18,5.21,2.18,5.21l2.53,2.11l2.53-2.39 c0,0,1.27-4.93,2.75-5.07c1.69-0.16,2.82,4.43,2.82,4.43l-8.09,4.43L19.51,117.63z" fill="#FFFDFD"/>
  <path d="M39.5,107.07c0,0,1.75,3.48,3.8,3.31c2.46-0.21,2.89-6.19,2.89-6.19L39.5,107.07z" fill="#FFFDFD"/>
  <path d="M35.13,92.36c-0.32,1.93-4.3,4.33-5.96,5.42c-2.06,1.36-4.46,3.17-6.01,3.24s-3.85,0.23-6.05,0.38 c-2.11,0.14-3.61,0.59-4.6,2.63c-0.73,1.51-0.89,5.02,0.8,6.71c1.69,1.69,5.42,3.17,10.42,2.53c5-0.63,6.55-1.48,8.17-2.18 c1.62-0.7,9.15-3.73,12.67-4.65c3.52-0.92,10.14-2.82,11.26-1.83c1.13,0.99-3.38,4.01-6.9,5.35c-3.52,1.34-13.97,7.32-18.11,8.45 c-2.95,0.8-9.22,0.36-10.75-1.06c-1.16-1.07-1.55-1.81-1.58-2.78c-0.04-0.97-1.11-1.32-2.08-0.32c-1.2,1.23,0.11,4.5,2.53,6.48 c2.41,1.95,6.47,3.09,12.48,2.67c8.17-0.56,15.65-5.84,17.41-5.91c1.76-0.07,7.5,0.85,12.95-1.31c5.6-2.22,8.35-6.43,8.35-6.43 s4.88-2.35,7.98-4.46c3.1-2.11,5.07-3.57,5.07-3.57s-2.72-1.6-2.79-5.49c-0.04-2.32,0.77-5.49,2.82-5.14 c2.04,0.35-1.48,5.49,2.32,7.32s10.35,3.87,13.87,1.83c3.52-2.04,7.15-7.31,5.96-9.07c-1.2-1.76-4.03-2.41-6.76-2.96 c-2.56-0.51-5.82-0.71-5.82-0.71s3.45-8.66,3.87-13.51c0.22-2.53,0.12-4.94-0.21-6.97c-0.42-2.6-1.09-5.83-1.06-8.24 c0.04-2.6,0.28-6.19,1.62-5.91c1.34,0.28,0.73,3.94,0.99,7.39c0.28,3.87,1.97,9.36,6.34,9.08c4.36-0.28,6.69-3.31,6.05-9.08 c-0.63-5.77-1.3-9.43-3.7-12.39c-2.39-2.96-5.03-3.55-5.03-3.55s-0.35-10.94-3.59-17.7C94.51,19.19,86.55,9.09,74.31,5.57 S53,5.46,46.68,9.3c-8.69,5.28-12.49,19.6-17.84,22.21s-9.68,2.5-9.75,3.98c-0.07,1.48,0.49,1.97,3.94,1.9 c3.45-0.07,6.99-0.63,11.54-3.87c5.38-3.84,12.74-12.74,18.3-14.78s11.54-1.41,14.36,1.62s3.66,6.43,2.99,9.15 c-1.11,4.52-4.4,7.39-4.4,7.39s-10.49,2.82-13.51,7.46s-2.15,6.72,0.14,8.59c3.67,2.99,8.59,1.48,8.59,1.48s-2.43,8.94-2.99,11.68 c-0.56,2.75-2.36,11.76-2.92,13.16c-0.56,1.41-1.27,4.5-3.17,4.43c-1.9-0.07-5.28-3.59-11.05-1.34 C35.68,84.4,35.56,89.83,35.13,92.36z" fill="#70853C"/>
  <path d="M52.13,103.69c-2.15,0.6-2.29,5.88-2.29,5.88s1.31-0.51,2.71-1.3c1.37-0.77,1.99-1.43,1.99-1.43 S53.46,103.32,52.13,103.69z" fill="#FFFDFD"/>
  <path d="M97.26,113.42c-1.48-0.11-2.11,1.31-2.44,2.76c-0.18,0.77-0.25,1.51-0.25,1.51s0.84,0.18,1.83,0.11 s1.9-0.21,1.9-0.21S99.31,113.57,97.26,113.42z" fill="#70853C"/>
  <path d="M99.62,117.31c0,0-0.21-1.71,0.53-3.11c0.74-1.41,2.78-1.4,2.89,0.53c0.05,0.97-0.07,1.6-0.07,1.6 s-0.7,0.35-1.39,0.55C100.77,117.1,99.62,117.31,99.62,117.31z" fill="#70853C"/>
  <path d="M105.45,82.93c-1.72,0.01-1.82,3.55-1.82,3.55s0.61,0.5,1.71,0.53c0.98,0.03,1.76-0.18,1.76-0.18 S107.36,82.92,105.45,82.93z" fill="#71873B"/>
  <path d="M108.59,86.32c0,0-1.63-3.92,0.5-4.46c1.46-0.37,1.97,2.66,1.97,2.66s-0.46,0.58-1.06,0.99 C109.36,85.94,108.59,86.32,108.59,86.32z" fill="#71873B"/>
  <path d="M49.67,67.65c0,0,1.36-3.22,2.73-2.52c1.44,0.74-0.39,3.82-0.39,3.82s-0.77-0.25-1.41-0.6 C50.16,68.11,49.67,67.65,49.67,67.65z" fill="#70853C"/>
  <path d="M55.12,66c1.51,0.07,0.99,3.26,0.99,3.26s-0.65,0.07-1.34,0.05c-0.64-0.02-1.39-0.09-1.39-0.09 S53.78,65.94,55.12,66z" fill="#70853C"/>
  <path d="M22.25,91.34c0,0,3.63-0.95,4.36,0.67c0.74,1.62-2.97,2.71-2.97,2.71s-0.76-0.96-1-1.62 C22.13,91.74,22.25,91.34,22.25,91.34z" fill="#70853C"/>
  <path d="M24.86,95.93c-0.04-0.11,2.25-2.29,3.55-1.34s-0.81,3.24-0.81,3.24s-0.88-0.48-1.44-0.88 C25.48,96.47,24.86,95.93,24.86,95.93z" fill="#70853C"/>
  <path d="M61.83,95.01c0.14,1.64-0.33,3.57-2.82,4.18c-2.26,0.56-4.55-0.89-4.6-3.33 c-0.05-2.35,1.79-4.04,3.8-4.04S61.66,93,61.83,95.01z" fill="#2E2C33"/>
  <path d="M26.99,107.61c-0.09,1.17-1.1,1.49-1.83,1.41c-1.03-0.12-1.71-1.13-1.42-2.09 c0.27-0.93,1.21-1.36,2.01-1.11C26.54,106.06,27.07,106.61,26.99,107.61z" fill="#2E2C33"/>
  <path d="M18.85,105.34c0.42,0.94-0.38,1.87-0.99,2.11c-0.82,0.33-1.91-0.04-2.18-1.01 c-0.26-0.93,0.31-1.79,1.12-2S18.44,104.42,18.85,105.34z" fill="#2E2C33"/>
  <path d="M59.54,77.32c-0.68,2.26,0.08,3.65,0.41,4.38c0.66,1.45,1.7,1.4,2.55,0.74 c0.84-0.66-0.38-3,0.05-4.08c0.61-1.55,2.77-1.6,2.58-3.47c-0.14-1.4-2.01-1.7-3.33-0.56C60.83,75.14,59.99,75.79,59.54,77.32z" fill="#97A927"/>
  <path d="M64.03,63.47c-0.95,2.35-0.35,4.24-0.07,4.93c0.46,1.13,2.57,1.48,2.78-0.39 c0.14-1.26-0.46-2.08,0.11-3.52c0.55-1.41,1.69-1.06,2.75-2.01c0.56-0.51,0.63-2.39-1.44-2.36C67.06,60.14,65.15,60.69,64.03,63.47z " fill="#97A927"/>
  <path d="M81.52,68.74c-0.42,2.15-0.07,3.52,0.35,4.26c0.42,0.74,2.18,1.26,2.67-0.35 c0.28-0.92-0.39-1.65,0.11-3.55c0.25-0.97,0.92-1.44,1.55-2.11c0.99-1.06-0.33-2.76-1.94-2.11C83.14,65.33,82.04,66.12,81.52,68.74z " fill="#97A927"/>
  <path d="M75.15,81.98c-0.88,1.58-0.72,3.36-0.56,4.4c0.32,2.15,2.46,2.11,2.71,0.88 c0.25-1.23-0.04-2.75,0.39-3.77s1.76-1.26,2.6-1.69c1.16-0.6,0.84-3.06-1.34-2.6C76.77,79.66,75.85,80.72,75.15,81.98z" fill="#97A927"/>
  <path d="M85.5,52.73c-0.53,1.79-0.38,3.01-0.25,3.66c0.32,1.51,2.43,1.58,2.64,0.25 c0.21-1.34,0.14-2.08,0.39-2.92c0.41-1.39,0.76-1.63,1.37-2.29c1.09-1.16-0.25-2.99-1.9-2.01C86.8,49.99,85.9,51.37,85.5,52.73z" fill="#97A927"/>
  <path d="M68.42,47.64c-0.91,1.76-0.69,3.66-0.55,4.59c0.15,0.92,0.62,1.78,1.64,1.7 c1.02-0.07,1.39-0.85,1.28-1.7c-0.06-0.44-0.29-1.89,0.18-2.89s1.41-1.6,2.15-1.89c1.83-0.7,0.75-3.34-1.35-2.63 C70.24,45.35,69.15,46.23,68.42,47.64z" fill="#97A927"/>
  <path d="M75.19,33.94c-1.32,1.42-1.39,3.14-1.3,4.36c0.18,2.43,2.43,2.04,2.71,0.67 c0.19-0.92,0.39-2.18,0.67-2.82c0.56-1.27,1.51-2.04,0.77-2.82C77.37,32.64,76.07,32.99,75.19,33.94z" fill="#97A927"/>
  <path d="M87.79,37.19c-0.12,2.11,0.23,2.97,0.76,3.94c0.76,1.39,2.71,1.04,2.82-0.6 c0.08-1.19-0.48-0.91-0.36-3.22c0.08-1.46,0.87-2.86-0.2-3.38C89.75,33.41,87.99,33.69,87.79,37.19z" fill="#97A927"/>
  <path d="M84.51,20.95c0.6,1.02,1.37,1.9,1.65,3.31c0.39,1.94,2.93,1.48,2.96-0.28 c0.04-2.36-0.7-3.41-1.55-4.47c-0.82-1.02-2.15-1.06-2.71-0.67S84,20.08,84.51,20.95z" fill="#97A927"/>
  <path d="M74.84,21.81c-0.64,0.54-0.87,1.62-0.23,2.42c0.84,1.04,1.31,1.89,1.26,2.76 c-0.08,1.39,1.17,1.9,1.97,1.32c1.07-0.78,1.44-2.24,0.42-4.53C77.3,21.64,75.57,21.18,74.84,21.81z" fill="#97A927"/>
  <path d="M72.09,9.52c-0.31,0.98,0.73,1.34,1.77,1.52c1.04,0.18,2.24,0.96,2.59,1.73 c0.49,1.08,2.03,1.67,2.36-0.02c0.29-1.45-1.56-2.95-2.7-3.61C75.18,8.59,72.63,7.82,72.09,9.52z" fill="#97A927"/>
  <path d="M69.8,13.81c-1.58-0.89-4.32-0.81-4.65,0.7c-0.35,1.65,1.16,1.6,1.83,1.65 c0.88,0.07,1.72,0.32,2.25,0.95c0.53,0.63,0.92,1.34,2.01,1.02C72.33,17.82,72.55,15.35,69.8,13.81z" fill="#97A927"/>
  <path d="M64.38,8.6c0.46-0.58,0.32-2.29-2.78-2.43c-2.59-0.12-3.26,1.12-2.85,1.9 c0.53,1.02,1.82,0.31,2.89,0.42C62.94,8.63,63.82,9.3,64.38,8.6z" fill="#97A927"/>
  <path d="M57.87,11.66c-1.79-0.21-3.78,0.87-3.38,2.43c0.32,1.23,1.79-0.1,2.96-0.07 c1.41,0.04,2.65,0.9,3.06,0.07C61.11,12.89,60.33,11.95,57.87,11.66z" fill="#97A927"/>
  <path d="M51.51,9.55c-0.03,1.2-1.15,0.85-2.53,1.37c-0.84,0.32-1.63,1.83-2.42,1.17 c-1.06-0.89-0.09-2.31,1.5-3.13C49.21,8.35,51.55,8.28,51.51,9.55z" fill="#97A927"/>
  <path d="M46.66,14.87c-2.35,1.15-2.96,4.01-1.79,4.52c1.42,0.62,1.39-1.5,2.61-2.28 c0.97-0.61,3.23-0.29,3.21-1.67C50.67,14.06,48.08,14.18,46.66,14.87z" fill="#97A927"/>
  <path d="M42.28,22.6c0.26-0.91-1.55-2.15-3.7-0.7s-2.3,3.57-0.92,3.87c0.99,0.21,1.06-1.29,1.9-1.94 C40.76,22.92,41.93,23.84,42.28,22.6z" fill="#97A927"/>
</svg>

<svg viewBox="0 0 128 128" xmlns="http://www.w3.org/2000/svg">
  <defs/>
  <path d="M58.5,13.64 L39.54,24.34 L28.47,35.04 L19.44,36.79 C19.44,36.79 22.96,40.73 33.2,37.39 C43.34,34.08 49.06,20.48 60.12,21.69 C70.75,22.85 68.74,33.2 68.74,33.2 L83.28,16.65 L58.5,13.64 Z" fill="#5A6415"/>
  <path d="M55.27,42.28 C55.27,42.28 51.9,43.27 49.97,48.51 C48.47,52.58 49.45,56.53 49.88,58.08 C50.3,59.63 51.37,61.74 51.44,62.58 C51.51,63.42 49.03,65.07 49.15,66.63 C49.22,67.55 50.92,68.91 53.02,69.16 C57.1,69.65 58.02,68.6 58.02,68.6 L63.51,49.7 L55.27,42.28 Z" fill="#5A6415"/>
  <path d="M57.27,75.19 C57.27,75.19 50.2,71.11 42.95,71.53 C35.7,71.95 33.66,75.33 32.81,78.22 C32.25,80.14 30.95,83.45 29.92,85.12 C28.97,86.67 26.96,87.99 25.7,88.27 C23.89,88.67 21.65,89.43 22.37,92.21 C22.96,94.49 24.62,95.92 26.66,97.26 C28.67,98.57 31.04,100.08 31.04,100.08 L57.01,82.87 L57.27,75.19 Z" fill="#5A6415"/>
  <path d="M82.08,88.21 L76.17,96.02 C76.17,96.02 78.49,100.67 84.26,102 C90.03,103.34 93.02,103.69 93.8,105.55 C94.85,108.09 93.66,111.46 93.24,112.17 C92.82,112.87 90.62,115.17 92.22,116.75 C94.16,118.65 99.4,117.52 101.23,116.89 C103.06,116.26 105.36,115.78 106.17,113.11 C106.72,111.28 107.83,104.69 107.67,100.6 C107.49,95.85 106.61,92.68 105.14,91.34 C103.66,90 93.98,88.21 93.98,88.21 C93.98,88.21 95.65,84.33 97.57,79.27 C98.52,76.77 99.08,74.1 99.54,73.92 C100.27,73.64 101.48,75.61 101.76,76.38 C102.04,77.15 101.9,84.85 102.95,86 C103.84,86.98 106.78,87.62 109.47,85.82 C111.83,84.24 114.32,81.31 114.19,78.29 C114.01,74.38 110.42,71.53 110.28,69.98 C110.14,68.43 110.84,64.52 110.28,61.5 C109.72,58.47 95.25,49.5 95.25,49.5 L82.08,88.21 Z" fill="#5A6415"/>
  <path d="M56.04,101.72 L22.67,110.73 L18.17,111.79 L18.31,116.36 L26.83,121.99 L46.54,116.15 L59.14,109.4 L55.62,101.23" fill="#F26A35"/>
  <path d="M19.51,117.63 C19.51,117.63 19.79,113.48 21.62,113.83 C23.11,114.12 23.8,119.04 23.8,119.04 L26.33,121.15 L28.86,118.76 C28.86,118.76 30.13,113.83 31.61,113.69 C33.3,113.53 34.43,118.12 34.43,118.12 L26.34,122.55 L19.51,117.63 Z" fill="#FFFDFD"/>
  <path d="M39.5,107.07 C39.5,107.07 41.25,110.55 43.3,110.38 C45.76,110.17 46.19,104.19 46.19,104.19 L39.5,107.07 Z" fill="#FFFDFD"/>
  <path d="M35.13,92.36 C34.81,94.29 30.83,96.69 29.17,97.78 C27.11,99.14 24.71,100.95 23.16,101.02 C21.61,101.09 19.31,101.25 17.11,101.4 C15,101.54 13.5,101.99 12.51,104.03 C11.78,105.54 11.62,109.05 13.31,110.74 C15,112.43 18.73,113.91 23.73,113.27 C28.73,112.64 30.28,111.79 31.9,111.09 C33.52,110.39 41.05,107.36 44.57,106.44 C48.09,105.52 54.71,103.62 55.83,104.61 C56.96,105.6 52.45,108.62 48.93,109.96 C45.41,111.3 34.96,117.28 30.82,118.41 C27.87,119.21 21.6,118.77 20.07,117.35 C18.91,116.28 18.52,115.54 18.49,114.57 C18.45,113.6 17.38,113.25 16.41,114.25 C15.21,115.48 16.52,118.75 18.94,120.73 C21.35,122.68 25.41,123.82 31.42,123.4 C39.59,122.84 47.07,117.56 48.83,117.49 C50.59,117.42 56.33,118.34 61.78,116.18 C67.38,113.96 70.13,109.75 70.13,109.75 C70.13,109.75 75.01,107.4 78.11,105.29 C81.21,103.18 83.18,101.72 83.18,101.72 C83.18,101.72 80.46,100.12 80.39,96.23 C80.35,93.91 81.16,90.74 83.21,91.09 C85.25,91.44 81.73,96.58 85.53,98.41 C89.33,100.24 95.88,102.28 99.4,100.24 C102.92,98.2 106.55,92.93 105.36,91.17 C104.16,89.41 101.33,88.76 98.6,88.21 C96.04,87.7 92.78,87.5 92.78,87.5 C92.78,87.5 96.23,78.84 96.65,73.99 C96.87,71.46 96.77,69.05 96.44,67.02 C96.02,64.42 95.35,61.19 95.38,58.78 C95.42,56.18 95.66,52.59 97,52.87 C98.34,53.15 97.73,56.81 97.99,60.26 C98.27,64.13 99.96,69.62 104.33,69.34 C108.69,69.06 111.02,66.03 110.38,60.26 C109.75,54.49 109.08,50.83 106.68,47.87 C104.29,44.91 101.65,44.32 101.65,44.32 C101.65,44.32 101.3,33.38 98.06,26.62 C94.51,19.19 86.55,9.09 74.31,5.57 C62.07,2.05 53,5.46 46.68,9.3 C37.99,14.58 34.19,28.9 28.84,31.51 C23.49,34.12 19.16,34.01 19.09,35.49 C19.02,36.97 19.58,37.46 23.03,37.39 C26.48,37.32 30.02,36.76 34.57,33.52 C39.95,29.68 47.31,20.78 52.87,18.74 C58.43,16.7 64.41,17.33 67.23,20.36 C70.05,23.39 70.89,26.79 70.22,29.51 C69.11,34.03 65.82,36.9 65.82,36.9 C65.82,36.9 55.33,39.72 52.31,44.36 C49.29,49 50.16,51.08 52.45,52.95 C56.12,55.94 61.04,54.43 61.04,54.43 C61.04,54.43 58.61,63.37 58.05,66.11 C57.49,68.86 55.69,77.87 55.13,79.27 C54.57,80.68 53.86,83.77 51.96,83.7 C50.06,83.63 46.68,80.11 40.91,82.36 C35.68,84.4 35.56,89.83 35.13,92.36 Z" fill="#70853C"/>
  <path d="M52.13,103.69 C49.98,104.29 49.84,109.57 49.84,109.57 C49.84,109.57 51.15,109.06 52.55,108.27 C53.92,107.5 54.54,106.84 54.54,106.84 C54.54,106.84 53.46,103.32 52.13,103.69 Z" fill="#FFFDFD"/>
  <path d="M97.26,113.42 C95.78,113.31 95.15,114.73 94.82,116.18 C94.64,116.95 94.57,117.69 94.57,117.69 C94.57,117.69 95.41,117.87 96.4,117.8 C97.39,117.73 98.3,117.59 98.3,117.59 C98.3,117.59 99.31,113.57 97.26,113.42 Z" fill="#70853C"/>
  <path d="M99.62,117.31 C99.62,117.31 99.41,115.6 100.15,114.2 C100.89,112.79 102.93,112.8 103.04,114.73 C103.09,115.7 102.97,116.33 102.97,116.33 C102.97,116.33 102.27,116.68 101.58,116.88 C100.77,117.1 99.62,117.31 99.62,117.31 Z" fill="#70853C"/>
  <path d="M105.45,82.93 C103.73,82.94 103.63,86.48 103.63,86.48 C103.63,86.48 104.24,86.98 105.34,87.01 C106.32,87.04 107.1,86.83 107.1,86.83 C107.1,86.83 107.36,82.92 105.45,82.93 Z" fill="#71873B"/>
  <path d="M108.59,86.32 C108.59,86.32 106.96,82.4 109.09,81.86 C110.55,81.49 111.06,84.52 111.06,84.52 C111.06,84.52 110.6,85.1 110,85.51 C109.36,85.94 108.59,86.32 108.59,86.32 Z" fill="#71873B"/>
  <path d="M49.67,67.65 C49.67,67.65 51.03,64.43 52.4,65.13 C53.84,65.87 52.01,68.95 52.01,68.95 C52.01,68.95 51.24,68.7 50.6,68.35 C50.16,68.11 49.67,67.65 49.67,67.65 Z" fill="#70853C"/>
  <path d="M55.12,66 C56.63,66.07 56.11,69.26 56.11,69.26 C56.11,69.26 55.46,69.33 54.77,69.31 C54.13,69.29 53.38,69.22 53.38,69.22 C53.38,69.22 53.78,65.94 55.12,66 Z" fill="#70853C"/>
  <path d="M22.25,91.34 C22.25,91.34 25.88,90.39 26.61,92.01 C27.35,93.63 23.64,94.72 23.64,94.72 C23.64,94.72 22.88,93.76 22.64,93.1 C22.13,91.74 22.25,91.34 22.25,91.34 Z" fill="#70853C"/>
  <path d="M24.86,95.93 C24.82,95.82 27.11,93.64 28.41,94.59 C29.71,95.54 27.6,97.83 27.6,97.83 C27.6,97.83 26.72,97.35 26.16,96.95 C25.48,96.47 24.86,95.93 24.86,95.93 Z" fill="#70853C"/>
  <path d="M61.83,95.01 C61.97,96.65 61.5,98.58 59.01,99.19 C56.75,99.75 54.46,98.3 54.41,95.86 C54.36,93.51 56.2,91.82 58.21,91.82 C60.22,91.82 61.66,93 61.83,95.01 Z" fill="#2E2C33"/>
  <path d="M26.99,107.61 C26.9,108.78 25.89,109.1 25.16,109.02 C24.13,108.9 23.45,107.89 23.74,106.93 C24.01,106 24.95,105.57 25.75,105.82 C26.54,106.06 27.07,106.61 26.99,107.61 Z" fill="#2E2C33"/>
  <path d="M18.85,105.34 C19.27,106.28 18.47,107.21 17.86,107.45 C17.04,107.78 15.95,107.41 15.68,106.44 C15.42,105.51 15.99,104.65 16.8,104.44 C17.61,104.23 18.44,104.42 18.85,105.34 Z" fill="#2E2C33"/>
  <path d="M59.54,77.32 C58.86,79.58 59.62,80.97 59.95,81.7 C60.61,83.15 61.65,83.1 62.5,82.44 C63.34,81.78 62.12,79.44 62.55,78.36 C63.16,76.81 65.32,76.76 65.13,74.89 C64.99,73.49 63.12,73.19 61.8,74.33 C60.83,75.14 59.99,75.79 59.54,77.32 Z" fill="#97A927"/>
  <path d="M64.03,63.47 C63.08,65.82 63.68,67.71 63.96,68.4 C64.42,69.53 66.53,69.88 66.74,68.01 C66.88,66.75 66.28,65.93 66.85,64.49 C67.4,63.08 68.54,63.43 69.6,62.48 C70.16,61.97 70.23,60.09 68.16,60.12 C67.06,60.14 65.15,60.69 64.03,63.47 Z" fill="#97A927"/>
  <path d="M81.52,68.74 C81.1,70.89 81.45,72.26 81.87,73 C82.29,73.74 84.05,74.26 84.54,72.65 C84.82,71.73 84.15,71 84.65,69.1 C84.9,68.13 85.57,67.66 86.2,66.99 C87.19,65.93 85.87,64.23 84.26,64.88 C83.14,65.33 82.04,66.12 81.52,68.74 Z" fill="#97A927"/>
  <path d="M75.15,81.98 C74.27,83.56 74.43,85.34 74.59,86.38 C74.91,88.53 77.05,88.49 77.3,87.26 C77.55,86.03 77.26,84.51 77.69,83.49 C78.12,82.47 79.45,82.23 80.29,81.8 C81.45,81.2 81.13,78.74 78.95,79.2 C76.77,79.66 75.85,80.72 75.15,81.98 Z" fill="#97A927"/>
  <path d="M85.5,52.73 C84.97,54.52 85.12,55.74 85.25,56.39 C85.57,57.9 87.68,57.97 87.89,56.64 C88.1,55.3 88.03,54.56 88.28,53.72 C88.69,52.33 89.04,52.09 89.65,51.43 C90.74,50.27 89.4,48.44 87.75,49.42 C86.8,49.99 85.9,51.37 85.5,52.73 Z" fill="#97A927"/>
  <path d="M68.42,47.64 C67.51,49.4 67.73,51.3 67.87,52.23 C68.02,53.15 68.49,54.01 69.51,53.93 C70.53,53.86 70.9,53.08 70.79,52.23 C70.73,51.79 70.5,50.34 70.97,49.34 C71.44,48.34 72.38,47.74 73.12,47.45 C74.95,46.75 73.87,44.11 71.77,44.82 C70.24,45.35 69.15,46.23 68.42,47.64 Z" fill="#97A927"/>
  <path d="M75.19,33.94 C73.87,35.36 73.8,37.08 73.89,38.3 C74.07,40.73 76.32,40.34 76.6,38.97 C76.79,38.05 76.99,36.79 77.27,36.15 C77.83,34.88 78.78,34.11 78.04,33.33 C77.37,32.64 76.07,32.99 75.19,33.94 Z" fill="#97A927"/>
  <path d="M87.79,37.19 C87.67,39.3 88.02,40.16 88.55,41.13 C89.31,42.52 91.26,42.17 91.37,40.53 C91.45,39.34 90.89,39.62 91.01,37.31 C91.09,35.85 91.88,34.45 90.81,33.93 C89.75,33.41 87.99,33.69 87.79,37.19 Z" fill="#97A927"/>
  <path d="M84.51,20.95 C85.11,21.97 85.88,22.85 86.16,24.26 C86.55,26.2 89.09,25.74 89.12,23.98 C89.16,21.62 88.42,20.57 87.57,19.51 C86.75,18.49 85.42,18.45 84.86,18.84 C84.3,19.23 84,20.08 84.51,20.95 Z" fill="#97A927"/>
  <path d="M74.84,21.81 C74.2,22.35 73.97,23.43 74.61,24.23 C75.45,25.27 75.92,26.12 75.87,26.99 C75.79,28.38 77.04,28.89 77.84,28.31 C78.91,27.53 79.28,26.07 78.26,23.78 C77.3,21.64 75.57,21.18 74.84,21.81 Z" fill="#97A927"/>
  <path d="M72.09,9.52 C71.78,10.5 72.82,10.86 73.86,11.04 C74.9,11.22 76.1,12 76.45,12.77 C76.94,13.85 78.48,14.44 78.81,12.75 C79.1,11.3 77.25,9.8 76.11,9.14 C75.18,8.59 72.63,7.82 72.09,9.52 Z" fill="#97A927"/>
  <path d="M69.8,13.81 C68.22,12.92 65.48,13 65.15,14.51 C64.8,16.16 66.31,16.11 66.98,16.16 C67.86,16.23 68.7,16.48 69.23,17.11 C69.76,17.74 70.15,18.45 71.24,18.13 C72.33,17.82 72.55,15.35 69.8,13.81 Z" fill="#97A927"/>
  <path d="M64.38,8.6 C64.84,8.02 64.7,6.31 61.6,6.17 C59.01,6.05 58.34,7.29 58.75,8.07 C59.28,9.09 60.57,8.38 61.64,8.49 C62.94,8.63 63.82,9.3 64.38,8.6 Z" fill="#97A927"/>
  <path d="M57.87,11.66 C56.08,11.45 54.09,12.53 54.49,14.09 C54.81,15.32 56.28,13.99 57.45,14.02 C58.86,14.06 60.1,14.92 60.51,14.09 C61.11,12.89 60.33,11.95 57.87,11.66 Z" fill="#97A927"/>
  <path d="M51.51,9.55 C51.48,10.75 50.36,10.4 48.98,10.92 C48.14,11.24 47.35,12.75 46.56,12.09 C45.5,11.2 46.47,9.78 48.06,8.96 C49.21,8.35 51.55,8.28 51.51,9.55 Z" fill="#97A927"/>
  <path d="M46.66,14.87 C44.31,16.02 43.7,18.88 44.87,19.39 C46.29,20.01 46.26,17.89 47.48,17.11 C48.45,16.5 50.71,16.82 50.69,15.44 C50.67,14.06 48.08,14.18 46.66,14.87 Z" fill="#97A927"/>
  <path d="M42.28,22.6 C42.54,21.69 40.73,20.45 38.58,21.9 C36.43,23.35 36.28,25.47 37.66,25.77 C38.65,25.98 38.72,24.48 39.56,23.83 C40.76,22.92 41.93,23.84 42.28,22.6 Z" fill="#97A927"/>
</svg>
